!!!OTL: "Fruehlingslied" IN DER SCHOENEN FRUEHLINGSZEIT
!!!ARE: Europa, Mitteleuropa, Steiermark
!!!SCT: Z1261
!!!YEM: Copyright 1995, estate of Helmut Schaffrath.
**kern
*ICvox
*Ivox
*M3/4
*k[f#c#]
*D:
{4.A
8G
=1
8F#
8G
8A
8B
8c#
8d
=2
8B
8e}
{8g
8f#
8e
8d
=3
8c#
8b
4.a
8g
=4
8f#
8d}
{4.A
8G
=5
8F#
8G
8A
8B
8c#
8d
=6
8B
8e}
{8g
8f#
8e
8d
=7
8c#
8b
4a
8g
8c#
=8
4d
4r}
{8A
8d
=9
8c#
8g
4.A
8c#
=10
8d
8f#
4.A}
{8d
=11
8c#
8g
4.A
8c#
=12
8d
8f#
8A
8d
8c#
8B}
=13
{4A
8C#
8E
8A
8c#
=14
4.f#}
{8e
8d
8c#
=15
8B
8d
8G
8B
8C#
8E
=16
4D}
==
!!!AGN: Natur und Welt
!!!ONB: ESAC (Essen Associative Code) Database: ZUCCAL
!!!AMT: simple triple
!!!AIN: vox
!!!EED: Helmut Schaffrath
!!!EEV: 1.0
*-
